X:7
T:Ashover simple chords 25
M:3/4
L:1/8
K:A
[e2A,2C2E2] ed cB | [cA,CE]A GA df | [e2A,2C2E2] ed fd | [eA,CE]c A=G Bd | [e2A,2C2E2] ed cB |
[cA,CE]A GA df | [eA,CE]a cB cd | [eE,G,B,]f g2<a2 | [e2A,2C2E2] ed cB |
[cA,CE]A GA df | [e2A,2C2E2] ed fd | [eA,CE]c A=G Bd | [e2A,2C2E2] ed cB |
[cA,CE]A GA df | [eA,CE]a cB cd | [eE,G,B,]f g2<a2 | [BE,G,B,]c BB ed |
[cA,CE]B AB GE | [FD,F,A,]G Aa gf | [eB,DF]c A2<B2 | [c2A,2C2E2] ea gf |
[cA,CE]A GA df | [eA,CE]a cB cd | [eE,G,B,]f g2<a2 |


